X:1
T:[ID 1-139a]
T:[ID 1-139a]
T:Bezeichnung standardisiert: Menuett Men\"uet
T:Urheber unbekannt Datum in der hier transkribierten schriftlichen Quelle: 1767
C:Urheber unbekannt
C:Datum in der hier transkribierten schriftlichen Quelle: 1767
L:1/8
M:3/4
K:D
V:1 treble 
V:1
 D2 F2 A2 | d3 efg | a2 a2 fa |{a} g2 eg f2 | A4 FA | G2 EG F2 | Aa(ag)(gf) | f4 e2 | g2 bgec | %9
 f2 af e"^Ende unleserlich"c | A4 (3fga | (ag)(gf) f2 | A4 (3efg | (gf)fe e2 | d2 bgec | d2 fdBF | %16
 G2 F2 E2 | D6 :| %18

